proprietary/assets/icons/energie-en-chemie/kerncentrale.svg

<svg height="64" viewBox="0 0 64 64" width="64" xmlns="http://www.w3.org/2000/svg"><path d="m0 0h64v64h-64z" fill="none"/><path d="m28.6 12.7c0-4 2.8-5.9 6.4-5.8 3.2.2 4.5.4 9.2-1.7 1.7-.7 5-1.9 11.6 1.7 0 0 .5-.6-.3-1.6-1.5-1.7-4.2-3.1-7.4-3.3-5-.2-5.7 2.4-13 2-2.8-.1-5.3.6-7.2 2.6-1.6 1.7-2.1 4.3-1.9 6.6.8-.2 1.6-.4 2.6-.5zm33-6.1c-1 3.2-3.5 5.1-7.5 4.2-2.7-.5-6.4-2.5-9.2-.7-1 .6-1.7 1.6-2 2.7.9.2 1.8.3 2.5.6 1-1.8 2.8-1.5 5.4-.7 2.3.6 6.2 1.9 9.3-.3 1.5-1.1 2.2-2.7 2.3-4.3.1-1.4-.8-1.5-.8-1.5zm-16 19.7c.2-5.9.5-6.5.9-9.7.5-3.2-22.5-3.2-21.9 0 .6 3.1.8 3.8 1 9.7v.9c6.3 1.4 11 6.5 11.4 12.8l.9 16h13.5c-1.7-3.9-6.2-18.4-5.8-29.7zm-23.6 2.7c-6.7 0-12.4 4.8-12.7 11.1l-1.1 19.9h27.6l-1.1-19.9c-.3-6.3-6-11.1-12.7-11.1zm0 13.5c.8 0 1.5.7 1.5 1.5s-.7 1.5-1.5 1.5-1.5-.7-1.5-1.5.7-1.5 1.5-1.5zm-3.5-4.5 2.1 3.6c-.8.5-1.4 1.4-1.4 2.4h-4.2c0-2.6 1.4-4.8 3.5-6zm3.5 13c-1.3 0-2.5-.3-3.5-.9l2.1-3.6c.4.2.9.4 1.4.4s1-.1 1.4-.4l2.1 3.6c-1 .5-2.2.9-3.5.9zm2.8-7c0-1-.6-1.9-1.4-2.4l2.1-3.6c2.1 1.2 3.5 3.4 3.5 6z"/></svg>

<?xml version="1.0" encoding="utf-8"?>
<!-- Generator: Adobe Illustrator 21.0.2, SVG Export Plug-In . SVG Version: 6.00 Build 0)  -->
<svg version="1.2" baseProfile="tiny" xmlns="http://www.w3.org/2000/svg" xmlns:xlink="http://www.w3.org/1999/xlink" x="0px"
	 y="0px" width="64px" height="64px" viewBox="0 0 64 64" xml:space="preserve">
<g id="Box">
	<rect fill="none" width="64" height="64"/>
</g>
<g id="Icon">
	<g>
		<path d="M28.6,12.7c0-4,2.8-5.9,6.4-5.8c3.2,0.2,4.5,0.4,9.2-1.7c1.7-0.7,5-1.9,11.6,1.7c0,0,0.5-0.6-0.3-1.6
			c-1.5-1.7-4.2-3.1-7.4-3.3c-5-0.2-5.7,2.4-13,2c-2.8-0.1-5.3,0.6-7.2,2.6c-1.6,1.7-2.1,4.3-1.9,6.6C26.8,13,27.6,12.8,28.6,12.7z
			 M61.6,6.6c-1,3.2-3.5,5.1-7.5,4.2c-2.7-0.5-6.4-2.5-9.2-0.7c-1,0.6-1.7,1.6-2,2.7c0.9,0.2,1.8,0.3,2.5,0.6c1-1.8,2.8-1.5,5.4-0.7
			c2.3,0.6,6.2,1.9,9.3-0.3c1.5-1.1,2.2-2.7,2.3-4.3C62.5,6.7,61.6,6.6,61.6,6.6z M45.6,26.3c0.2-5.9,0.5-6.5,0.9-9.7
			c0.5-3.2-22.5-3.2-21.9,0c0.6,3.1,0.8,3.8,1,9.7c0,0.3,0,0.6,0,0.9c6.3,1.4,11,6.5,11.4,12.8l0.9,16h13.5
			C49.7,52.1,45.2,37.6,45.6,26.3z M22,29c-6.7,0-12.4,4.8-12.7,11.1L8.2,60h27.6l-1.1-19.9C34.4,33.8,28.7,29,22,29z M22,42.5
			c0.8,0,1.5,0.7,1.5,1.5c0,0.8-0.7,1.5-1.5,1.5c-0.8,0-1.5-0.7-1.5-1.5C20.5,43.2,21.2,42.5,22,42.5z M18.5,38l2.1,3.6
			c-0.8,0.5-1.4,1.4-1.4,2.4H15C15,41.4,16.4,39.2,18.5,38z M22,51c-1.3,0-2.5-0.3-3.5-0.9l2.1-3.6c0.4,0.2,0.9,0.4,1.4,0.4
			s1-0.1,1.4-0.4l2.1,3.6C24.5,50.6,23.3,51,22,51z M24.8,44c0-1-0.6-1.9-1.4-2.4l2.1-3.6c2.1,1.2,3.5,3.4,3.5,6H24.8z"/>
	</g>
</g>
</svg>
